src/food-drink/food-asian/1F961.svg

<?xml version="1.0" encoding="UTF-8"?>
<svg id="emoji" xmlns="http://www.w3.org/2000/svg" viewBox="0 0 72 72">
  <g id="grid">
    <path d="m68,4v64H4V4h64m4-4H0v72h72V0Z" fill="#b3b3b3"/>
    <path d="m12.923,10.9583h46.1539c1.0621,0,1.9231.861,1.9231,1.9231h0v46.1538c0,1.0621-.861,1.9231-1.9231,1.9231H12.9231c-1.0621,0-1.9231-.861-1.9231-1.9231h0V12.8813c0-1.062.861-1.923,1.923-1.923h0Z" fill="none" stroke="#00a5ff" stroke-miterlimit="10" stroke-width=".1"/>
    <rect x="16" y="4" width="40" height="64" rx="2.2537" ry="2.2537" fill="none" stroke="#00a5ff" stroke-miterlimit="10" stroke-width=".1"/>
    <rect x="4" y="16" width="64" height="40" rx="2.2537" ry="2.2537" fill="none" stroke="#00a5ff" stroke-miterlimit="10" stroke-width=".1"/>
    <circle cx="36" cy="36" r="29" fill="none" stroke="#00a5ff" stroke-miterlimit="10" stroke-width=".1"/>
  </g>
  <g id="color">
    <polygon points="21.034 22.2869 51.6288 22.7558 51 29 53.4409 28.9432 51.2771 47.255 20.7996 47.255 18.6805 29.8624 21.7073 29.9668 21.034 22.2869" fill="#fff"/>
    <polygon points="51 27 53.8816 26.9791 53.4409 28.9432 51 29 51 27" fill="#d22f27"/>
    <polygon points="18.1605 26.8731 21 27 21 29 18.3379 28.4996 18.1605 26.8731" fill="#d22f27"/>
    <polygon points="20.8124 48.6146 51.3126 48.8138 51.0471 50.2741 21.0116 50.2409 20.8124 48.6146" fill="#d22f27"/>
  </g>
  <g id="line">
    <polyline points="17.712 29.958 20.562 54.5 51.437 54.5 54.287 29.958" fill="none" stroke="#000" stroke-linecap="round" stroke-linejoin="round" stroke-width="2"/>
    <polyline points="54.269 29.956 51.437 54.5 20.562 54.5 17 23.625" fill="none" stroke="#000" stroke-linecap="round" stroke-linejoin="round" stroke-width="2"/>
    <line x1="55" y1="23.625" x2="54.2695" y2="29.9563" fill="none" stroke="#000" stroke-linecap="round" stroke-linejoin="round" stroke-width="2"/>
    <line x1="15" y1="22" x2="8" y2="37" fill="none" stroke="#000" stroke-linecap="round" stroke-linejoin="round" stroke-width="2"/>
    <line x1="57" y1="22" x2="64" y2="37" fill="none" stroke="#000" stroke-linecap="round" stroke-linejoin="round" stroke-width="2"/>
    <line x1="20" y1="22" x2="52" y2="22" fill="none" stroke="#000" stroke-linecap="round" stroke-linejoin="round" stroke-width="2"/>
    <line x1="20" y1="22" x2="22" y2="37" fill="none" stroke="#000" stroke-linecap="round" stroke-linejoin="round" stroke-width="2"/>
    <line x1="52" y1="22" x2="50" y2="37" fill="none" stroke="#000" stroke-linecap="round" stroke-linejoin="round" stroke-width="2"/>
    <line x1="22" y1="37" x2="50" y2="37" fill="none" stroke="#000" stroke-linecap="round" stroke-linejoin="round" stroke-width="2"/>
    <line x1="21" y1="51" x2="51" y2="51" fill="none" stroke="#000" stroke-linecap="round" stroke-linejoin="round" stroke-width="2"/>
    <line x1="20" y1="48" x2="51" y2="48" fill="none" stroke="#000" stroke-linecap="round" stroke-linejoin="round" stroke-width="2"/>
    <line x1="18" y1="26" x2="20" y2="26" fill="none" stroke="#000" stroke-linecap="round" stroke-linejoin="round" stroke-width="2"/>
    <line x1="18" y1="29" x2="20" y2="29" fill="none" stroke="#000" stroke-linecap="round" stroke-linejoin="round" stroke-width="2"/>
    <line x1="52" y1="26" x2="54" y2="26" fill="none" stroke="#000" stroke-linecap="round" stroke-linejoin="round" stroke-width="2"/>
    <line x1="52" y1="29" x2="54" y2="29" fill="none" stroke="#000" stroke-linecap="round" stroke-linejoin="round" stroke-width="2"/>
    <path d="m42,22l12.7087-11.2762c.3681-.3824.3565-.9908-.0259-1.359-.3721-.3582-.9606-.3583-1.3328-.0002l-11.35,12.6354Z" fill="none" stroke="#000" stroke-linecap="round" stroke-linejoin="round" stroke-width="2"/>
    <path d="m38,22l11.32-15.451c.2996-.434.1906-1.0287-.2435-1.3283-.0155-.0107-.0313-.0209-.0474-.0307-.4572-.287-1.0598-.1578-1.3592.2913l-9.6699,16.5187Z" fill="none" stroke="#000" stroke-linecap="round" stroke-linejoin="round" stroke-width="2"/>
  </g>
</svg>

<svg id="emoji" viewBox="0 0 72 72" xmlns="http://www.w3.org/2000/svg">
  <g id="grid">
    <path fill="#b3b3b3" d="M68,4V68H4V4H68m4-4H0V72H72V0Z"/>
    <path fill="none" stroke="#00a5ff" stroke-miterlimit="10" stroke-width="0.1" d="M12.923,10.9583H59.0769A1.9231,1.9231,0,0,1,61,12.8814V59.0352a1.9231,1.9231,0,0,1-1.9231,1.9231H12.9231A1.9231,1.9231,0,0,1,11,59.0352V12.8813A1.923,1.923,0,0,1,12.923,10.9583Z"/>
    <rect x="16" y="4" rx="2.2537" width="40" height="64" fill="none" stroke="#00a5ff" stroke-miterlimit="10" stroke-width="0.1"/>
    <rect x="16" y="4" rx="2.2537" width="40" height="64" transform="translate(72) rotate(90)" fill="none" stroke="#00a5ff" stroke-miterlimit="10" stroke-width="0.1"/>
    <circle cx="36" cy="36" r="29" fill="none" stroke="#00a5ff" stroke-miterlimit="10" stroke-width="0.1"/>
  </g>
  <g id="color">
    <rect x="51" y="27" width="4" height="2" fill="#d22f27"/>
    <rect x="17" y="27" width="4" height="2" fill="#d22f27"/>
    <rect x="20" y="49" width="32" height="2" fill="#d22f27"/>
  </g>
  <g id="line">
    <polyline fill="none" stroke="#000000" stroke-linecap="round" stroke-linejoin="round" stroke-width="2" points="17.712 29.958 20.562 54.5 51.437 54.5 54.287 29.958"/>
    <polyline fill="none" stroke="#000000" stroke-linecap="round" stroke-linejoin="round" stroke-width="2" points="54.269 29.956 51.437 54.5 20.562 54.5 17 23.625"/>
    <line x1="55" x2="54.2695" y1="23.625" y2="29.9563" fill="none" stroke="#000000" stroke-linecap="round" stroke-linejoin="round" stroke-width="2"/>
    <line x1="15" x2="8" y1="22" y2="37" fill="none" stroke="#000000" stroke-linecap="round" stroke-linejoin="round" stroke-width="2"/>
    <line x1="57" x2="64" y1="22" y2="37" fill="none" stroke="#000000" stroke-linecap="round" stroke-linejoin="round" stroke-width="2"/>
    <line x1="20" x2="52" y1="22" y2="22" fill="none" stroke="#000000" stroke-linecap="round" stroke-linejoin="round" stroke-width="2"/>
    <line x1="20" x2="22" y1="22" y2="37" fill="none" stroke="#000000" stroke-linecap="round" stroke-linejoin="round" stroke-width="2"/>
    <line x1="52" x2="50" y1="22" y2="37" fill="none" stroke="#000000" stroke-linecap="round" stroke-linejoin="round" stroke-width="2"/>
    <line x1="22" x2="50" y1="37" y2="37" fill="none" stroke="#000000" stroke-linecap="round" stroke-linejoin="round" stroke-width="2"/>
    <line x1="21" x2="51" y1="51" y2="51" fill="none" stroke="#000000" stroke-linecap="round" stroke-linejoin="round" stroke-width="2"/>
    <line x1="20" x2="51" y1="48" y2="48" fill="none" stroke="#000000" stroke-linecap="round" stroke-linejoin="round" stroke-width="2"/>
    <line x1="18" x2="20" y1="26" y2="26" fill="none" stroke="#000000" stroke-linecap="round" stroke-linejoin="round" stroke-width="2"/>
    <line x1="18" x2="20" y1="29" y2="29" fill="none" stroke="#000000" stroke-linecap="round" stroke-linejoin="round" stroke-width="2"/>
    <line x1="52" x2="54" y1="26" y2="26" fill="none" stroke="#000000" stroke-linecap="round" stroke-linejoin="round" stroke-width="2"/>
    <line x1="52" x2="54" y1="29" y2="29" fill="none" stroke="#000000" stroke-linecap="round" stroke-linejoin="round" stroke-width="2"/>
    <path fill="none" stroke="#000000" stroke-linecap="round" stroke-linejoin="round" stroke-width="2" d="M42,22,54.7087,10.7238A.9611.9611,0,0,0,53.35,9.3646z"/>
    <path fill="none" stroke="#000000" stroke-linecap="round" stroke-linejoin="round" stroke-width="2" d="M38,22,49.32,6.549A.9549.9549,0,0,0,49.0291,5.19a.9967.9967,0,0,0-1.3592.2913z"/>
  </g>
</svg>
